lib/svgs/location.svg

<svg xmlns="http://www.w3.org/2000/svg" viewBox="0 0 20 20">
    <path fill="#000" fill-rule="evenodd" d="M10.0283174,18 C9.84531743,18 9.67231743,17.917 9.55831743,17.773 L5.50231743,12.665 C3.40331743,9.82 3.51831743,6 5.75631743,3.762 C6.89331743,2.626 8.40931743,2 10.0273174,2 L10.0283174,2 C11.6453174,2 13.1623174,2.626 14.2983174,3.762 C16.5363174,6 16.6523174,9.821 14.5663174,12.648 L10.4983174,17.773 C10.3843174,17.917 10.2113174,18 10.0283174,18 L10.0283174,18 L10.0283174,18 Z M10.0273174,3.2 C8.73031743,3.2 7.51531743,3.701 6.60531743,4.611 C4.78331743,6.432 4.71831743,9.582 6.45531743,11.936 L10.0273174,16.435 L13.6133174,11.919 C15.3373174,9.582 15.2723174,6.433 13.4493174,4.611 C12.5403174,3.701 11.3253174,3.2 10.0283174,3.2 L10.0273174,3.2 L10.0273174,3.2 L10.0273174,3.2 Z M10.0278174,11.1392 C8.37381743,11.1392 7.02781743,9.7932 7.02781743,8.1392 C7.02781743,6.4852 8.37381743,5.1392 10.0278174,5.1392 C11.6818174,5.1392 13.0278174,6.4852 13.0278174,8.1392 C13.0278174,9.7932 11.6818174,11.1392 10.0278174,11.1392 L10.0278174,11.1392 L10.0278174,11.1392 Z M10.0278174,6.3392 C9.03481743,6.3392 8.22781743,7.1462 8.22781743,8.1392 C8.22781743,9.1312 9.03481743,9.9392 10.0278174,9.9392 C11.0208174,9.9392 11.8278174,9.1312 11.8278174,8.1392 C11.8278174,7.1462 11.0208174,6.3392 10.0278174,6.3392 L10.0278174,6.3392 L10.0278174,6.3392 Z"/>
</svg>

<svg xmlns="http://www.w3.org/2000/svg" viewBox="0 0 20 20">
    <path fill="#000" fill-rule="evenodd" d="M10.028 18a.599.599 0 0 1-.47-.227l-4.056-5.108C3.403 9.82 3.518 6 5.756 3.762A6 6 0 0 1 10.027 2h.001c1.617 0 3.134.626 4.27 1.762 2.238 2.238 2.354 6.059.268 8.886l-4.068 5.125a.599.599 0 0 1-.47.227m0-14.8a4.804 4.804 0 0 0-3.423 1.411c-1.822 1.821-1.887 4.971-.15 7.325l3.572 4.499 3.586-4.516c1.724-2.337 1.66-5.486-.164-7.308A4.8 4.8 0 0 0 10.03 3.2h-.002m0 7.94a3.004 3.004 0 0 1 0-6 3.004 3.004 0 0 1 0 6m0-4.8a1.801 1.801 0 1 0 .004 3.602 1.801 1.801 0 0 0-.003-3.603"/>
</svg>
